!!!SOCIAL_FUNCTION:	songs of the shuffling-feet dance
!!!PDT:	1918

Specific Region: Dakotas, Minnesota, Montana, Nebraska
!!!REG: Dakotas and Montana
!!!LING_GROUP: Siouan
!!!LANG: Tone
!!!OTL@ENG: Begging Song
!!!ONM: No. 205
**kern
*Imale
*clefF4
*k[b-e-a-d-g-]
*M3/4
*>[A,A1,A,A2]
*>norep[A,A2]
*>A
=!|:
*MM120
8F
=1
2.f
=2
8B-
8f
2d-
=3
12A-
12F
12B-
2A-
=4||
*M2/4
4F
4F
=5
8B-
8B-
12B-
12F
12B-
=6
2A-
=7
4F
4F
=8
8F
8F
8F
8D-
=9
8F
8F
4D-
=10
8D-
8F
8F
8D-
=11
8F
8F
8F
8D-
=12
8F
8F
4F
=13
8B-
8B-
4B-
=14
8f
8d-
8d-
8d-
=15||
*M3/4
8A-
8F
8B-
8A-
8A-
8A-
=16||
*M2/4
4F
4F
=17
8B-
8B-
12B-
12F
12B-
=18
4A-
4A-
=19
4F
4F
=20
8E-
8F
8F
8D-
=21
8F
8F
4D-
=22
8D-
8F
8F
8D-
=23
8F
8F
4D-
*>A1
=24
!! ending 1
8F
8F
8F
8D-
=
4.F
*>A2
=25:|!
!! ending 2
8F
8F
8F
8D-
=26
8F
8F
(8F
8D-)
==
*-
!!!CNT: Native American -- Sioux
!!!MRD: 1911/07//-1914///
!!!OCL: Frances Densmore
!!!YOR1: Teton Sioux Music, Bulletin 61,
!!!YOR2: Bureau of American Ethnology, Smithsonian Institution
!!!PPR: Government Printing Office
!!!PPP: Washington, D.C.
!!!PDT: 1918///
!!!ENC: Craig Stuart Sapp
!!!END: 2002/03/25/
!!!EEV: 2002/03/31/
!!!AGN: Dance Song/Song of the Begging Dance
!!!MPN@@SIO: Waha'changka-ya'pi
!!!MPN@ENG: Used-as-a-Shield
!!!TXO: Teton Sioux
!!!MLC: Standing Rock Reservation, South Dakota, United States of America
!!!ARL: 45.9/-100.7#
!!!catalog: Catalogue No. 619
!!!PPG: 483
!!!EFL: 210/245
!! ending 1
!! ending 2
!!!VTS: 1674360145
